X: 15655
T: Going To The Well For Water
R: slide
M: 12/8
K: Dmajor
|:A2f A2f A2f fed|Bgg Bgg Bgg gfe|
cec BcB Ace a2f|1 gfe ABc d3 dcB:|2 gfe ABc d3 d2e||
|:f2f fed e2e edc|ded dcB c3 cBA|
GBB GBB FAA FAA|1 EDE e2d cBc dce:|2 EDE e2d cBc dcB||

